public/Headers/Main.svg

<svg width="1920" height="668" viewBox="0 0 1920 668" fill="none" xmlns="http://www.w3.org/2000/svg">
<path fill-rule="evenodd" clip-rule="evenodd" d="M64 154.115L0 116.087V668H1920V0L1856 39.0292L1853.18 40.7076C1788.29 79.2781 1662.14 154.26 1536 164.123C1446.13 170.447 1356.26 144.209 1266.38 117.972C1228.26 106.841 1190.13 95.71 1152 87.0652C1024 58.0435 896 58.0435 768 106.079C722.15 123.286 676.3 146.656 630.451 170.026L630.448 170.028C548.298 211.9 466.149 253.772 384 260.195C257.455 269.099 130.91 193.884 66.2071 155.427L64 154.115Z" fill="url(#paint0_linear_2656:5168)"/>
<defs>
<linearGradient id="paint0_linear_2656:5168" x1="2.34967e-05" y1="821.614" x2="1920" y2="821.614" gradientUnits="userSpaceOnUse">
<stop stop-color="#78ECF2"/>
<stop offset="1" stop-color="#71AFE5"/>
</linearGradient>
</defs>
</svg>

<svg width="1920" height="668" fill="none" xmlns="http://www.w3.org/2000/svg"><path fill-rule="evenodd" clip-rule="evenodd" d="M64 154.115 0 116.087V668h1920V0l-64 39.03-2.82 1.678c-64.89 38.57-191.04 113.552-317.18 123.415-89.87 6.324-179.74-19.914-269.62-46.151-38.12-11.131-76.25-22.262-114.38-30.907-128-29.021-256-29.021-384 19.014-45.85 17.207-91.7 40.577-137.549 63.947l-.003.002C548.298 211.9 466.149 253.772 384 260.195c-126.545 8.904-253.09-66.311-317.793-104.768L64 154.115Z" fill="url(#a)"/><defs><linearGradient id="a" x1="0" y1="821.614" x2="1920" y2="821.614" gradientUnits="userSpaceOnUse"><stop stop-color="#78ECF2"/><stop offset="1" stop-color="#71AFE5"/></linearGradient></defs></svg>
